React/src/assets/images/otherSkills/swift.svg

<svg width="130" height="130" viewBox="0 0 130 130" fill="none" xmlns="http://www.w3.org/2000/svg">
<path d="M92.5546 106.822C79.7713 114.189 62.2755 114.947 44.563 107.364C30.263 101.297 18.4005 90.6805 10.8171 78.5472C14.4463 81.5263 18.7255 83.9638 23.2755 86.1305C41.5296 94.6347 59.7296 94.0388 72.5671 86.1305C54.313 72.1013 38.7671 53.8472 27.2296 38.9513C24.7921 36.5138 23.0046 33.4805 21.163 30.7722C66.013 63.543 64.063 71.8847 34.2171 25.3013C60.7046 52.0597 85.2963 67.2263 85.2963 67.2263C86.163 67.7138 86.6505 68.093 87.2463 68.418C87.788 67.0638 88.2755 65.6555 88.6546 64.193C92.9338 48.7555 88.0588 31.043 77.388 16.4722C102.034 31.368 116.659 59.318 110.538 82.7722C110.375 83.368 110.213 83.9638 110.267 84.8847C122.4 100.214 119.15 116.193 117.58 113.16C111.025 100.214 98.7296 104.222 92.5546 106.822V106.822Z" fill="#FE5E2F"/>
</svg>

<svg width="130" height="130" fill="none" xmlns="http://www.w3.org/2000/svg"><path d="M92.555 106.822c-12.784 7.367-30.28 8.125-47.992.542-14.3-6.067-26.163-16.684-33.746-28.817 3.63 2.98 7.909 5.417 12.459 7.584 18.254 8.504 36.454 7.908 49.291 0-18.254-14.03-33.8-32.284-45.337-47.18-2.438-2.437-4.225-5.47-6.067-8.179 44.85 32.771 42.9 41.113 13.054-5.47 26.488 26.758 51.08 41.924 51.08 41.924.866.488 1.353.867 1.95 1.192a35.105 35.105 0 001.408-4.225c4.279-15.438-.596-33.15-11.267-47.72 24.646 14.895 39.271 42.845 33.15 66.3-.163.595-.325 1.19-.271 2.112 12.133 15.329 8.883 31.308 7.313 28.275-6.555-12.946-18.85-8.938-25.025-6.338z" fill="#FE5E2F"/></svg>
